src/images/icons/Icon-about-Twitter.svg

<svg width="24" height="24" fill="none" xmlns="http://www.w3.org/2000/svg"><defs><clipPath id="a"><path fill="#fff" fill-opacity="0" d="M0 0h24v24H0z"/></clipPath></defs><path fill="none" d="M0 0h24v24H0z"/><g clip-path="url(#a)"><path d="M15.9 6c-.76 0-1.49.29-2.03.83-.54.53-.86 1.25-.87 2.01l-.03 1.58c0 .08-.02.17-.06.24-.03.08-.08.15-.15.2-.06.06-.14.1-.22.12-.08.03-.16.03-.25.02l-1.56-.21c-2.05-.28-4.02-1.23-5.91-2.8-.6 3.31.57 5.6 3.38 7.37l1.75 1.1c.08.05.15.12.2.21.05.08.08.18.08.28.01.1-.02.19-.06.28-.04.09-.11.17-.18.22l-1.6 1.17c.95.06 1.85.01 2.6-.13 4.71-.95 7.85-4.5 7.85-10.35 0-.48-1.01-2.14-2.94-2.14ZM11 8.81c.02-.97.32-1.91.87-2.7.54-.79 1.31-1.41 2.21-1.76.89-.36 1.88-.45 2.82-.25.94.19 1.81.67 2.48 1.35.72 0 1.32.18 2.67-.64-.33 1.64-.5 2.35-1.21 3.33 0 7.64-4.7 11.36-9.46 12.31-3.27.65-8.02-.42-9.38-1.84.69-.06 3.51-.36 5.14-1.55-1.38-.91-6.87-4.14-3.26-12.83 1.69 1.98 3.41 3.33 5.15 4.04 1.16.47 1.44.46 1.97.54Z" fill="#000"/><path d="M19.38 5.45A4.855 4.855 0 0 0 16.9 4.1c-.94-.2-1.93-.11-2.82.25-.9.35-1.67.97-2.21 1.76-.51.74-.81 1.6-.86 2.5-.01.06-.01.13-.01.2l-.2-.03c-.42-.05-.77-.1-1.77-.51-1.69-.69-3.36-1.98-5.01-3.87l-.14-.17-.09.21c-3.3 8.19 1.57 11.45 3.17 12.5.01.01.03.02.04.03.05.03.1.06.14.09l-.18.12c-1.48.98-3.77 1.31-4.7 1.4-.11.01-.2.02-.26.03.05.06.12.12.19.18 1.58 1.33 6.06 2.28 9.19 1.66 4.76-.95 9.46-4.67 9.46-12.31.67-.93.86-1.61 1.16-3.07.02-.08.04-.17.05-.26-.08.04-.15.09-.23.13-.99.56-1.56.54-2.11.52-.11-.01-.21-.01-.33-.01Zm2.39-.25q-.57.29-1.05.39-.27.06-.55.07-.16.01-.47 0-.21-.01-.31-.01h-.09l-.06-.06q-.24-.24-.52-.45-.27-.21-.57-.37-.31-.17-.63-.29-.32-.12-.66-.19t-.68-.09q-.35-.02-.69.01-.35.03-.68.11-.33.08-.66.21-.32.13-.61.3-.3.18-.57.39-.27.22-.51.47-.23.25-.43.54-.2.28-.35.59-.15.31-.26.64-.1.33-.16.67-.05.29-.06.6l.36.36-.59-.08-.18-.03q-.42-.05-.7-.12-.44-.12-1.14-.41-2.54-1.04-5.01-3.84-1.08 2.72-1.07 5.02.01 1.75.65 3.23.09.21.2.42.65 1.27 1.78 2.3.41.38.89.73.28.2.72.49.1.06.14.09l.24.16-.23.17q-1.08.79-3 1.23-.66.16-1.37.26-.21.03-.41.05.45.33 1.17.64 1.03.43 2.36.71 1.36.28 2.72.32 1.45.05 2.61-.18 1.67-.33 3.13-1.07l.3-.16q1.29-.7 2.32-1.68.34-.32.66-.67.25-.29.48-.59 1.02-1.33 1.61-3 .8-2.22.8-4.94v-.07l.04-.05q.26-.35.43-.68.16-.32.29-.68.11-.34.23-.82.05-.24.14-.64ZM14.2 6.31q-.25.16-.47.37-.22.22-.39.46-.17.25-.29.53-.12.28-.18.57-.06.29-.07.6l-.03 1.57q0 .05-.01.08-.01.05-.03.09-.01.04-.04.07l-.06.06q-.03.03-.07.05-.03.02-.07.03-.05.01-.09.02-.04 0-.08-.01l-1.56-.21q-2.99-.41-5.81-2.75l-.26-.22-.07.33q-.45 2.52.43 4.39.86 1.81 3.05 3.19l1.74 1.1q.05.03.08.06l.06.08q.02.04.04.09.01.04.01.09 0 .05-.01.1t-.03.09q-.02.05-.05.09-.03.03-.07.06l-2.04 1.49.55.04q1.5.09 2.64-.14 1.82-.36 3.28-1.21.96-.56 1.73-1.3.43-.42.81-.89 1.07-1.36 1.63-3.13.57-1.82.57-4.01 0-.26-.21-.64-.23-.4-.6-.76-.32-.31-.71-.53-.13-.07-.27-.13-.22-.1-.46-.16-.43-.12-.89-.12-.3 0-.6.05-.29.06-.57.18-.29.11-.53.28ZM15.9 6c-.76 0-1.49.29-2.03.83-.54.53-.86 1.25-.87 2.01l-.03 1.58c0 .08-.02.17-.06.24-.03.08-.08.15-.15.2-.06.06-.14.1-.22.12-.08.03-.16.03-.25.02l-1.56-.21C8.74 10.52 6.83 9.62 5 8.14l-.18-.15c-.01.08-.03.15-.04.23-.5 3.19.68 5.41 3.42 7.14l1.75 1.1c.08.05.15.12.2.21.05.08.08.18.08.28.01.1-.02.19-.06.28-.04.09-.11.17-.18.22l-1.34.98-.26.19c.11 0 .22.01.32.01.83.03 1.61-.01 2.28-.14 4.71-.95 7.85-4.5 7.85-10.35 0-.48-1.01-2.14-2.94-2.14Z" fill="#FFF" fill-rule="evenodd"/></g></svg>

<svg width="24.000000" height="24.000000" viewBox="0 0 24 24" fill="none" xmlns="http://www.w3.org/2000/svg" xmlns:xlink="http://www.w3.org/1999/xlink">
	<desc>
			Created with Pixso.
	</desc>
	<defs>
		<clipPath id="clip246_4774">
			<rect id="Icon-Twitter" width="24.000000" height="24.000000" fill="white" fill-opacity="0"/>
		</clipPath>
	</defs>
	<rect id="Icon-Twitter" width="24.000000" height="24.000000" fill="#FFFFFF" fill-opacity="0"/>
	<g clip-path="url(#clip246_4774)">
		<path id="Vector" d="M15.9 6C15.14 6 14.41 6.29 13.87 6.83C13.33 7.36 13.01 8.08 13 8.84L12.97 10.42C12.97 10.5 12.95 10.59 12.91 10.66C12.88 10.74 12.83 10.81 12.76 10.86C12.7 10.92 12.62 10.96 12.54 10.98C12.46 11.01 12.38 11.01 12.29 11L10.73 10.79C8.68 10.51 6.71 9.56 4.82 7.99C4.22 11.3 5.39 13.59 8.2 15.36L9.95 16.46C10.03 16.51 10.1 16.58 10.15 16.67C10.2 16.75 10.23 16.85 10.23 16.95C10.24 17.05 10.21 17.14 10.17 17.23C10.13 17.32 10.06 17.4 9.99 17.45L8.39 18.62C9.34 18.68 10.24 18.63 10.99 18.49C15.7 17.54 18.84 13.99 18.84 8.14C18.84 7.66 17.83 6 15.9 6ZM11 8.81C11.02 7.84 11.32 6.9 11.87 6.11C12.41 5.32 13.18 4.7 14.08 4.35C14.97 3.99 15.96 3.9 16.9 4.1C17.84 4.29 18.71 4.77 19.38 5.45C20.1 5.45 20.7 5.63 22.05 4.81C21.72 6.45 21.55 7.16 20.84 8.14C20.84 15.78 16.14 19.5 11.38 20.45C8.11 21.1 3.36 20.03 2 18.61C2.69 18.55 5.51 18.25 7.14 17.06C5.76 16.15 0.27 12.92 3.88 4.23C5.57 6.21 7.29 7.56 9.03 8.27C10.19 8.74 10.47 8.73 11 8.81L11 8.81Z" fill="#000000" fill-opacity="1.000000" fill-rule="nonzero"/>
		<path id="Vector" d="M19.38 5.45C18.71 4.77 17.84 4.29 16.9 4.1C15.96 3.9 14.97 3.99 14.08 4.35C13.18 4.7 12.41 5.32 11.87 6.11C11.36 6.85 11.06 7.71 11.01 8.61C11 8.67 11 8.74 11 8.81L11 8.81C10.93 8.8 10.87 8.79 10.8 8.78C10.38 8.73 10.03 8.68 9.03 8.27C7.34 7.58 5.67 6.29 4.02 4.4C3.98 4.35 3.93 4.29 3.88 4.23C3.85 4.3 3.82 4.37 3.79 4.44C0.49 12.63 5.36 15.89 6.96 16.94C6.97 16.95 6.99 16.96 7 16.97C7.05 17 7.1 17.03 7.14 17.06C7.08 17.1 7.02 17.14 6.96 17.18C5.48 18.16 3.19 18.49 2.26 18.58C2.15 18.59 2.06 18.6 2 18.61C2.05 18.67 2.12 18.73 2.19 18.79C3.77 20.12 8.25 21.07 11.38 20.45C16.14 19.5 20.84 15.78 20.84 8.14C21.51 7.21 21.7 6.53 22 5.07C22.02 4.99 22.04 4.9 22.05 4.81C21.97 4.85 21.9 4.9 21.82 4.94C20.83 5.5 20.26 5.48 19.71 5.46C19.6 5.45 19.5 5.45 19.38 5.45ZM21.77 5.2Q21.2 5.49 20.72 5.59Q20.45 5.65 20.17 5.66Q20.01 5.67 19.7 5.66Q19.49 5.65 19.39 5.65L19.3 5.65L19.24 5.59Q19 5.35 18.72 5.14Q18.45 4.93 18.15 4.77Q17.84 4.6 17.52 4.48Q17.2 4.36 16.86 4.29Q16.52 4.22 16.18 4.2Q15.83 4.18 15.49 4.21Q15.14 4.24 14.81 4.32Q14.48 4.4 14.15 4.53Q13.83 4.66 13.54 4.83Q13.24 5.01 12.97 5.22Q12.7 5.44 12.46 5.69Q12.23 5.94 12.03 6.23Q11.83 6.51 11.68 6.82Q11.53 7.13 11.42 7.46Q11.32 7.79 11.26 8.13Q11.21 8.42 11.2 8.73L11.56 9.09L10.97 9.01Q10.91 9 10.79 8.98Q10.37 8.93 10.09 8.86Q9.65 8.74 8.95 8.45Q6.41 7.41 3.94 4.61Q2.86 7.33 2.87 9.63Q2.88 11.38 3.52 12.86Q3.61 13.07 3.72 13.28Q4.37 14.55 5.5 15.58Q5.91 15.96 6.39 16.31Q6.67 16.51 7.11 16.8Q7.21 16.86 7.25 16.89L7.49 17.05L7.26 17.22Q6.18 18.01 4.26 18.45Q3.6 18.61 2.89 18.71Q2.68 18.74 2.48 18.76Q2.93 19.09 3.65 19.4Q4.68 19.83 6.01 20.11Q7.37 20.39 8.73 20.43Q10.18 20.48 11.34 20.25Q13.01 19.92 14.47 19.18Q14.62 19.1 14.77 19.02Q16.06 18.32 17.09 17.34Q17.43 17.02 17.75 16.67Q18 16.38 18.23 16.08Q19.25 14.75 19.84 13.08Q20.64 10.86 20.64 8.14L20.64 8.07L20.68 8.02Q20.94 7.67 21.11 7.34Q21.27 7.02 21.4 6.66Q21.51 6.32 21.63 5.84Q21.68 5.6 21.77 5.2ZM14.2 6.31Q13.95 6.47 13.73 6.68Q13.51 6.9 13.34 7.14Q13.17 7.39 13.05 7.67Q12.93 7.95 12.87 8.24Q12.81 8.53 12.8 8.84L12.77 10.41Q12.77 10.46 12.76 10.49Q12.75 10.54 12.73 10.58Q12.72 10.62 12.69 10.65Q12.66 10.68 12.63 10.71Q12.6 10.74 12.56 10.76Q12.53 10.78 12.49 10.79Q12.44 10.8 12.4 10.81Q12.36 10.81 12.32 10.8L10.76 10.59Q7.77 10.18 4.95 7.84L4.69 7.62L4.62 7.95Q4.17 10.47 5.05 12.34Q5.91 14.15 8.1 15.53L9.84 16.63Q9.89 16.66 9.92 16.69Q9.95 16.73 9.98 16.77Q10 16.81 10.02 16.86Q10.03 16.9 10.03 16.95Q10.03 17 10.02 17.05Q10.01 17.1 9.99 17.14Q9.97 17.19 9.94 17.23Q9.91 17.26 9.87 17.29L7.83 18.78L8.38 18.82Q9.88 18.91 11.02 18.68Q12.84 18.32 14.3 17.47Q15.26 16.91 16.03 16.17Q16.46 15.75 16.84 15.28Q17.91 13.92 18.47 12.15Q19.04 10.33 19.04 8.14Q19.04 7.88 18.83 7.5Q18.6 7.1 18.23 6.74Q17.91 6.43 17.52 6.21Q17.39 6.14 17.25 6.08Q17.03 5.98 16.79 5.92Q16.36 5.8 15.9 5.8Q15.6 5.8 15.3 5.85Q15.01 5.91 14.73 6.03Q14.44 6.14 14.2 6.31ZM15.9 6C15.14 6 14.41 6.29 13.87 6.83C13.33 7.36 13.01 8.08 13 8.84L12.97 10.42C12.97 10.5 12.95 10.59 12.91 10.66C12.88 10.74 12.83 10.81 12.76 10.86C12.7 10.92 12.62 10.96 12.54 10.98C12.46 11.01 12.38 11.01 12.29 11L10.73 10.79C8.74 10.52 6.83 9.62 5 8.14C4.94 8.09 4.88 8.04 4.82 7.99C4.81 8.07 4.79 8.14 4.78 8.22C4.28 11.41 5.46 13.63 8.2 15.36L9.95 16.46C10.03 16.51 10.1 16.58 10.15 16.67C10.2 16.75 10.23 16.85 10.23 16.95C10.24 17.05 10.21 17.14 10.17 17.23C10.13 17.32 10.06 17.4 9.99 17.45L8.65 18.43L8.39 18.62C8.5 18.62 8.61 18.63 8.71 18.63C9.54 18.66 10.32 18.62 10.99 18.49C15.7 17.54 18.84 13.99 18.84 8.14C18.84 7.66 17.83 6 15.9 6Z" fill="#FFFFFF" fill-opacity="1.000000" fill-rule="evenodd"/>
	</g>
</svg>
